static/img/kroki/1147cd9efcb2c54b2e4fdbae2c6021a5.svg

<?xml version="1.0" encoding="us-ascii" standalone="no"?><svg xmlns="http://www.w3.org/2000/svg" xmlns:xlink="http://www.w3.org/1999/xlink" contentStyleType="text/css" height="1006px" preserveAspectRatio="none" style="width:440px;height:1006px;" version="1.1" viewBox="0 0 440 1006" width="440px" zoomAndPan="magnify"><defs/><g><!--class aws_iam_virtual_mfa_device--><g id="elem_aws_iam_virtual_mfa_device"><rect codeLine="22" fill="#3D176E" height="100.3828" id="aws_iam_virtual_mfa_device" rx="2.5" ry="2.5" style="stroke:#000D19;stroke-width:0.5;" width="284" x="78" y="899.42"/><ellipse cx="93" cy="919.3145" fill="#ADD1B2" rx="11" ry="11" style="stroke:#181818;stroke-width:1.0;"/><path d="M95.9688,924.9552 Q95.3906,925.252 94.75,925.3927 Q94.1094,925.5489 93.4063,925.5489 Q90.9063,925.5489 89.5781,923.9083 Q88.2656,922.252 88.2656,919.127 Q88.2656,916.002 89.5781,914.3458 Q90.9063,912.6895 93.4063,912.6895 Q94.1094,912.6895 94.75,912.8458 Q95.4063,913.002 95.9688,913.2989 L95.9688,916.0177 Q95.3438,915.4395 94.75,915.1739 Q94.1563,914.8927 93.5313,914.8927 Q92.1875,914.8927 91.5,915.9708 Q90.8125,917.0333 90.8125,919.127 Q90.8125,921.2208 91.5,922.2989 Q92.1875,923.3614 93.5313,923.3614 Q94.1563,923.3614 94.75,923.0958 Q95.3438,922.8145 95.9688,922.2364 L95.9688,924.9552 Z " fill="#000000"/><text fill="#D9B8FF" font-family="Helvetica" font-size="17" lengthAdjust="spacing" textLength="242" x="112" y="925.1998">aws_iam_virtual_mfa_device</text><line style="stroke:#000D19;stroke-width:0.5;" x1="79" x2="361" y1="939.2091" y2="939.2091"/><text fill="#D9B8FF" font-family="sans-serif" font-size="14" font-weight="bold" lengthAdjust="spacing" textLength="95" x="89" y="961.2042">enable_date</text><text fill="#D9B8FF" font-family="sans-serif" font-size="14" lengthAdjust="spacing" textLength="70" x="184" y="961.2042">: datetime</text><text fill="#D9B8FF" font-family="sans-serif" font-size="14" font-weight="bold" lengthAdjust="spacing" textLength="111" x="89" y="987.5011">serial_number</text><text fill="#D9B8FF" font-family="sans-serif" font-size="14" lengthAdjust="spacing" textLength="48" x="200" y="987.5011">: string</text></g><!--class aws_resource--><g id="elem_aws_resource"><rect codeLine="26" fill="#3D176E" height="74.0859" id="aws_resource" rx="2.5" ry="2.5" style="stroke:#000D19;stroke-width:0.5;" width="155" x="67.5" y="438.76"/><ellipse cx="82.5" cy="458.6545" fill="#ADD1B2" rx="11" ry="11" style="stroke:#181818;stroke-width:1.0;"/><path d="M85.4688,464.2952 Q84.8906,464.592 84.25,464.7327 Q83.6094,464.8889 82.9063,464.8889 Q80.4063,464.8889 79.0781,463.2483 Q77.7656,461.592 77.7656,458.467 Q77.7656,455.342 79.0781,453.6858 Q80.4063,452.0295 82.9063,452.0295 Q83.6094,452.0295 84.25,452.1858 Q84.9063,452.342 85.4688,452.6389 L85.4688,455.3577 Q84.8438,454.7795 84.25,454.5139 Q83.6563,454.2327 83.0313,454.2327 Q81.6875,454.2327 81,455.3108 Q80.3125,456.3733 80.3125,458.467 Q80.3125,460.5608 81,461.6389 Q81.6875,462.7014 83.0313,462.7014 Q83.6563,462.7014 84.25,462.4358 Q84.8438,462.1545 85.4688,461.5764 L85.4688,464.2952 Z " fill="#000000"/><text fill="#D9B8FF" font-family="Helvetica" font-size="17" lengthAdjust="spacing" textLength="113" x="101.5" y="464.5398">aws_resource</text><line style="stroke:#000D19;stroke-width:0.5;" x1="68.5" x2="221.5" y1="478.5491" y2="478.5491"/><text fill="#D9B8FF" font-family="sans-serif" font-size="14" font-weight="bold" lengthAdjust="spacing" textLength="26" x="78.5" y="500.5442">arn</text><text fill="#D9B8FF" font-family="sans-serif" font-size="14" lengthAdjust="spacing" textLength="48" x="104.5" y="500.5442">: string</text></g><!--class aws_root_user--><g id="elem_aws_root_user"><rect codeLine="29" fill="#3D176E" height="205.5703" id="aws_root_user" rx="2.5" ry="2.5" style="stroke:#000D19;stroke-width:0.5;" width="426" x="7" y="633.85"/><ellipse cx="150.25" cy="653.7445" fill="#ADD1B2" rx="11" ry="11" style="stroke:#181818;stroke-width:1.0;"/><path d="M153.2188,659.3852 Q152.6406,659.682 152,659.8227 Q151.3594,659.9789 150.6563,659.9789 Q148.1563,659.9789 146.8281,658.3383 Q145.5156,656.682 145.5156,653.557 Q145.5156,650.432 146.8281,648.7758 Q148.1563,647.1195 150.6563,647.1195 Q151.3594,647.1195 152,647.2758 Q152.6563,647.432 153.2188,647.7289 L153.2188,650.4477 Q152.5938,649.8695 152,649.6039 Q151.4063,649.3227 150.7813,649.3227 Q149.4375,649.3227 148.75,650.4008 Q148.0625,651.4633 148.0625,653.557 Q148.0625,655.6508 148.75,656.7289 Q149.4375,657.7914 150.7813,657.7914 Q151.4063,657.7914 152,657.5258 Q152.5938,657.2445 153.2188,656.6664 L153.2188,659.3852 Z " fill="#000000"/><text fill="#D9B8FF" font-family="Helvetica" font-size="17" lengthAdjust="spacing" textLength="121" x="175.75" y="659.6298">aws_root_user</text><line style="stroke:#000D19;stroke-width:0.5;" x1="8" x2="432" y1="673.6391" y2="673.6391"/><text fill="#D9B8FF" font-family="sans-serif" font-size="14" font-weight="bold" lengthAdjust="spacing" textLength="83" x="18" y="695.6342">mfa_active</text><text fill="#D9B8FF" font-family="sans-serif" font-size="14" lengthAdjust="spacing" textLength="65" x="101" y="695.6342">: boolean</text><text fill="#D9B8FF" font-family="sans-serif" font-size="14" font-weight="bold" lengthAdjust="spacing" textLength="148" x="18" y="721.9311">password_enabled</text><text fill="#D9B8FF" font-family="sans-serif" font-size="14" lengthAdjust="spacing" textLength="65" x="166" y="721.9311">: boolean</text><text fill="#D9B8FF" font-family="sans-serif" font-size="14" font-weight="bold" lengthAdjust="spacing" textLength="188" x="18" y="748.2279">password_last_changed</text><text fill="#D9B8FF" font-family="sans-serif" font-size="14" lengthAdjust="spacing" textLength="70" x="206" y="748.2279">: datetime</text><text fill="#D9B8FF" font-family="sans-serif" font-size="14" font-weight="bold" lengthAdjust="spacing" textLength="159" x="18" y="774.5248">password_last_used</text><text fill="#D9B8FF" font-family="sans-serif" font-size="14" lengthAdjust="spacing" textLength="70" x="177" y="774.5248">: datetime</text><text fill="#D9B8FF" font-family="sans-serif" font-size="14" font-weight="bold" lengthAdjust="spacing" textLength="189" x="18" y="800.8217">password_next_rotation</text><text fill="#D9B8FF" font-family="sans-serif" font-size="14" lengthAdjust="spacing" textLength="70" x="207" y="800.8217">: datetime</text><text fill="#D9B8FF" font-family="sans-serif" font-size="14" font-weight="bold" lengthAdjust="spacing" textLength="196" x="18" y="827.1186">user_virtual_mfa_devices</text><text fill="#D9B8FF" font-family="sans-serif" font-size="14" lengthAdjust="spacing" textLength="208" x="214" y="827.1186">: aws_iam_virtual_mfa_device[]</text></g><!--class resource--><g id="elem_resource"><rect codeLine="37" fill="#3D176E" height="310.7578" id="resource" rx="2.5" ry="2.5" style="stroke:#000D19;stroke-width:0.5;" width="227" x="106.5" y="7"/><ellipse cx="175.25" cy="26.8945" fill="#ADD1B2" rx="11" ry="11" style="stroke:#181818;stroke-width:1.0;"/><path d="M178.2188,32.5352 Q177.6406,32.832 177,32.9727 Q176.3594,33.1289 175.6563,33.1289 Q173.1563,33.1289 171.8281,31.4883 Q170.5156,29.832 170.5156,26.707 Q170.5156,23.582 171.8281,21.9258 Q173.1563,20.2695 175.6563,20.2695 Q176.3594,20.2695 177,20.4258 Q177.6563,20.582 178.2188,20.8789 L178.2188,23.5977 Q177.5938,23.0195 177,22.7539 Q176.4063,22.4727 175.7813,22.4727 Q174.4375,22.4727 173.75,23.5508 Q173.0625,24.6133 173.0625,26.707 Q173.0625,28.8008 173.75,29.8789 Q174.4375,30.9414 175.7813,30.9414 Q176.4063,30.9414 177,30.6758 Q177.5938,30.3945 178.2188,29.8164 L178.2188,32.5352 Z " fill="#000000"/><text fill="#D9B8FF" font-family="Helvetica" font-size="17" lengthAdjust="spacing" textLength="71" x="200.75" y="32.7798">resource</text><line style="stroke:#000D19;stroke-width:0.5;" x1="107.5" x2="332.5" y1="46.7891" y2="46.7891"/><text fill="#D9B8FF" font-family="sans-serif" font-size="14" font-weight="bold" lengthAdjust="spacing" textLength="29" x="117.5" y="68.7842">age</text><text fill="#D9B8FF" font-family="sans-serif" font-size="14" lengthAdjust="spacing" textLength="66" x="146.5" y="68.7842">: duration</text><text fill="#D9B8FF" font-family="sans-serif" font-size="14" font-weight="bold" lengthAdjust="spacing" textLength="43" x="117.5" y="95.0811">atime</text><text fill="#D9B8FF" font-family="sans-serif" font-size="14" lengthAdjust="spacing" textLength="70" x="160.5" y="95.0811">: datetime</text><text fill="#D9B8FF" font-family="sans-serif" font-size="14" font-weight="bold" lengthAdjust="spacing" textLength="43" x="117.5" y="121.3779">ctime</text><text fill="#D9B8FF" font-family="sans-serif" font-size="14" lengthAdjust="spacing" textLength="70" x="160.5" y="121.3779">: datetime</text><text fill="#D9B8FF" font-family="sans-serif" font-size="14" font-weight="bold" lengthAdjust="spacing" textLength="14" x="117.5" y="147.6748">id</text><text fill="#D9B8FF" font-family="sans-serif" font-size="14" lengthAdjust="spacing" textLength="48" x="131.5" y="147.6748">: string</text><text fill="#D9B8FF" font-family="sans-serif" font-size="14" font-weight="bold" lengthAdjust="spacing" textLength="33" x="117.5" y="173.9717">kind</text><text fill="#D9B8FF" font-family="sans-serif" font-size="14" lengthAdjust="spacing" textLength="48" x="150.5" y="173.9717">: string</text><text fill="#D9B8FF" font-family="sans-serif" font-size="14" font-weight="bold" lengthAdjust="spacing" textLength="90" x="117.5" y="200.2686">last_access</text><text fill="#D9B8FF" font-family="sans-serif" font-size="14" lengthAdjust="spacing" textLength="66" x="207.5" y="200.2686">: duration</text><text fill="#D9B8FF" font-family="sans-serif" font-size="14" font-weight="bold" lengthAdjust="spacing" textLength="90" x="117.5" y="226.5654">last_update</text><text fill="#D9B8FF" font-family="sans-serif" font-size="14" lengthAdjust="spacing" textLength="66" x="207.5" y="226.5654">: duration</text><text fill="#D9B8FF" font-family="sans-serif" font-size="14" font-weight="bold" lengthAdjust="spacing" textLength="48" x="117.5" y="252.8623">mtime</text><text fill="#D9B8FF" font-family="sans-serif" font-size="14" lengthAdjust="spacing" textLength="70" x="165.5" y="252.8623">: datetime</text><text fill="#D9B8FF" font-family="sans-serif" font-size="14" font-weight="bold" lengthAdjust="spacing" textLength="43" x="117.5" y="279.1592">name</text><text fill="#D9B8FF" font-family="sans-serif" font-size="14" lengthAdjust="spacing" textLength="48" x="160.5" y="279.1592">: string</text><text fill="#D9B8FF" font-family="sans-serif" font-size="14" font-weight="bold" lengthAdjust="spacing" textLength="34" x="117.5" y="305.4561">tags</text><text fill="#D9B8FF" font-family="sans-serif" font-size="14" lengthAdjust="spacing" textLength="171" x="151.5" y="305.4561">: dictionary[string, string]</text></g><!--class user--><g id="elem_user"><rect codeLine="49" fill="#3D176E" height="39.7891" id="user" rx="2.5" ry="2.5" style="stroke:#000D19;stroke-width:0.5;" width="78" x="257" y="455.91"/><ellipse cx="272" cy="475.8045" fill="#ADD1B2" rx="11" ry="11" style="stroke:#181818;stroke-width:1.0;"/><path d="M274.9688,481.4452 Q274.3906,481.742 273.75,481.8827 Q273.1094,482.0389 272.4063,482.0389 Q269.9063,482.0389 268.5781,480.3983 Q267.2656,478.742 267.2656,475.617 Q267.2656,472.492 268.5781,470.8358 Q269.9063,469.1795 272.4063,469.1795 Q273.1094,469.1795 273.75,469.3358 Q274.4063,469.492 274.9688,469.7889 L274.9688,472.5077 Q274.3438,471.9295 273.75,471.6639 Q273.1563,471.3827 272.5313,471.3827 Q271.1875,471.3827 270.5,472.4608 Q269.8125,473.5233 269.8125,475.617 Q269.8125,477.7108 270.5,478.7889 Q271.1875,479.8514 272.5313,479.8514 Q273.1563,479.8514 273.75,479.5858 Q274.3438,479.3045 274.9688,478.7264 L274.9688,481.4452 Z " fill="#000000"/><text fill="#D9B8FF" font-family="Helvetica" font-size="17" lengthAdjust="spacing" textLength="36" x="291" y="481.6898">user</text></g><!--reverse link resource to aws_resource--><g id="link_resource_aws_resource"><path codeLine="51" d="M178.5036,335.6792 C167.6536,380.7092 161,408.35 153.74,438.52 " fill="none" id="resource-backto-aws_resource" style="stroke:#FFAF37;stroke-width:2.0;"/><polygon fill="none" points="182.72,318.18,172.6705,334.2737,184.3366,337.0847,182.72,318.18" style="stroke:#FFAF37;stroke-width:2.0;"/></g><!--link aws_root_user to aws_iam_virtual_mfa_device--><g id="link_aws_root_user_aws_iam_virtual_mfa_device"><path codeLine="52" d="M220,839.72 C220,860.34 220,875.13 220,892.93 " fill="none" id="aws_root_user-to-aws_iam_virtual_mfa_device" style="stroke:#FFAF37;stroke-width:2.0;"/><polygon fill="#FFAF37" points="220,898.93,224,889.93,220,893.93,216,889.93,220,898.93" style="stroke:#FFAF37;stroke-width:2.0;"/></g><!--reverse link aws_resource to aws_root_user--><g id="link_aws_resource_aws_root_user"><path codeLine="53" d="M160.5979,530.6293 C169.6379,561.8393 178.09,591 190.37,633.38 " fill="none" id="aws_resource-backto-aws_root_user" style="stroke:#FFAF37;stroke-width:2.0;"/><polygon fill="none" points="155.59,513.34,154.8348,532.2986,166.361,528.96,155.59,513.34" style="stroke:#FFAF37;stroke-width:2.0;"/></g><!--reverse link user to aws_root_user--><g id="link_user_aws_root_user"><path codeLine="54" d="M285.3378,513.1106 C276.8178,542.1206 265.06,582.18 249.98,633.52 " fill="none" id="user-backto-aws_root_user" style="stroke:#FFAF37;stroke-width:2.0;"/><polygon fill="none" points="290.41,495.84,279.5809,511.4198,291.0946,514.8013,290.41,495.84" style="stroke:#FFAF37;stroke-width:2.0;"/></g><!--reverse link resource to user--><g id="link_resource_user"><path codeLine="55" d="M262.0454,335.6673 C275.3754,390.3173 284.49,427.63 291.33,455.65 " fill="none" id="resource-backto-user" style="stroke:#FFAF37;stroke-width:2.0;"/><polygon fill="none" points="257.78,318.18,256.2163,337.0891,267.8745,334.2455,257.78,318.18" style="stroke:#FFAF37;stroke-width:2.0;"/></g><!--SRC=[XP9FQzj04CNl-XGBkOaQx8RMSIc5n13QIoXDRw68qUv8NYpjYjsHNRVDT- -kv2YhVyv9CE-dDszcPoS5CYmhEh4IonIDZUnUgWeCbEpM67tSwa8RTfLba5slX-AzLlGcy00bigzO790aXo7nSoVvNg6rx7qWtG7VvqRNIhJsP41P9w6YWDeMOEqjaP5fJHY44Plq9ik6vD3qwbgirXznX6aZq9oHvN8fLfiXycQhYtDtnAFyWsmLBkr14uvYZbeqrCMKdWX2ZWPzqMSpVWSXfChPXw3seyra59fU_N47GXyzdK5XmpQMqA2cKuNRqLIukH7PUXB-DWTplpa6Hvj8A9E3D5H3aPGP908FaYFx6yKnAaWBJ0GGnl4dvhyaItIAHICThsf_wLwpxdHK7Zq7nWQjhitP2eoQmxIcf7Q63USJ02TvQ3gcMXS8ojKhXn_TGoLj9Z6ZEbTA-0vKtY91v3xZ6iu22d-JYqL0Kgi1v8DEhCjwR7wRJx-waVjRoTl5rgRfvIk-pw0ddwX94QmpZjtJzmlDaC1TCZleq8vVTO_wgfGJVHIqfSwO86yT9VU_WJazjTgxC_CwwlbHdwDkvi__5ej5xpYY_Wai5bykh37gdLLWzl9_r9XC2OE_VEq_]--></g></svg>

<svg xmlns="http://www.w3.org/2000/svg" width="440" height="1006" viewBox="0 0 440 1006"><rect width="284" height="100.383" x="78" y="899.42" fill="#3D176E" rx="2.5" ry="2.5" style="stroke:#000d19;stroke-width:.5"/><circle cx="93" cy="919.314" r="11" fill="#ADD1B2" style="stroke:#181818;stroke-width:1"/><path d="M95.969 924.955q-.578.297-1.219.438-.64.156-1.344.156-2.5 0-3.828-1.64-1.312-1.657-1.312-4.782t1.312-4.781q1.328-1.657 3.828-1.657.703 0 1.344.157.656.156 1.219.453v2.719q-.625-.579-1.219-.844-.594-.281-1.219-.281-1.344 0-2.031 1.078-.687 1.062-.687 3.156t.687 3.172q.688 1.062 2.031 1.062.625 0 1.219-.265.594-.282 1.219-.86z"/><text x="112" y="925.2" fill="#D9B8FF" font-family="Helvetica" font-size="17" textLength="242">aws_iam_virtual_mfa_device</text><path d="M79 939.209h282" style="stroke:#000d19;stroke-width:.5"/><text x="89" y="961.204" fill="#D9B8FF" font-family="sans-serif" font-size="14" font-weight="bold" textLength="95">enable_date</text><text x="184" y="961.204" fill="#D9B8FF" font-family="sans-serif" font-size="14" textLength="70">: datetime</text><text x="89" y="987.501" fill="#D9B8FF" font-family="sans-serif" font-size="14" font-weight="bold" textLength="111">serial_number</text><text x="200" y="987.501" fill="#D9B8FF" font-family="sans-serif" font-size="14" textLength="48">: string</text><rect width="155" height="74.086" x="67.5" y="438.76" fill="#3D176E" rx="2.5" ry="2.5" style="stroke:#000d19;stroke-width:.5"/><circle cx="82.5" cy="458.654" r="11" fill="#ADD1B2" style="stroke:#181818;stroke-width:1"/><path d="M85.469 464.295q-.578.297-1.219.438-.64.156-1.344.156-2.5 0-3.828-1.64-1.312-1.657-1.312-4.782t1.312-4.781q1.328-1.656 3.828-1.656.703 0 1.344.156.656.156 1.219.453v2.719q-.625-.579-1.219-.844-.594-.281-1.219-.281-1.344 0-2.031 1.078-.687 1.062-.687 3.156t.687 3.172q.688 1.062 2.031 1.062.625 0 1.219-.265.594-.281 1.219-.86z"/><text x="101.5" y="464.54" fill="#D9B8FF" font-family="Helvetica" font-size="17" textLength="113">aws_resource</text><path d="M68.5 478.549h153" style="stroke:#000d19;stroke-width:.5"/><text x="78.5" y="500.544" fill="#D9B8FF" font-family="sans-serif" font-size="14" font-weight="bold" textLength="26">arn</text><text x="104.5" y="500.544" fill="#D9B8FF" font-family="sans-serif" font-size="14" textLength="48">: string</text><rect width="426" height="205.57" x="7" y="633.85" fill="#3D176E" rx="2.5" ry="2.5" style="stroke:#000d19;stroke-width:.5"/><circle cx="150.25" cy="653.745" r="11" fill="#ADD1B2" style="stroke:#181818;stroke-width:1"/><path d="M153.219 659.385q-.578.297-1.219.438-.64.156-1.344.156-2.5 0-3.828-1.64-1.312-1.657-1.312-4.782t1.312-4.781q1.328-1.656 3.828-1.656.703 0 1.344.156.656.156 1.219.453v2.719q-.625-.578-1.219-.844-.594-.281-1.219-.281-1.344 0-2.031 1.078-.687 1.062-.687 3.156t.687 3.172q.688 1.062 2.031 1.062.625 0 1.219-.265.594-.281 1.219-.86z"/><text x="175.75" y="659.63" fill="#D9B8FF" font-family="Helvetica" font-size="17" textLength="121">aws_root_user</text><path d="M8 673.639h424" style="stroke:#000d19;stroke-width:.5"/><text x="18" y="695.634" fill="#D9B8FF" font-family="sans-serif" font-size="14" font-weight="bold" textLength="83">mfa_active</text><text x="101" y="695.634" fill="#D9B8FF" font-family="sans-serif" font-size="14" textLength="65">: boolean</text><text x="18" y="721.931" fill="#D9B8FF" font-family="sans-serif" font-size="14" font-weight="bold" textLength="148">password_enabled</text><text x="166" y="721.931" fill="#D9B8FF" font-family="sans-serif" font-size="14" textLength="65">: boolean</text><text x="18" y="748.228" fill="#D9B8FF" font-family="sans-serif" font-size="14" font-weight="bold" textLength="188">password_last_changed</text><text x="206" y="748.228" fill="#D9B8FF" font-family="sans-serif" font-size="14" textLength="70">: datetime</text><text x="18" y="774.525" fill="#D9B8FF" font-family="sans-serif" font-size="14" font-weight="bold" textLength="159">password_last_used</text><text x="177" y="774.525" fill="#D9B8FF" font-family="sans-serif" font-size="14" textLength="70">: datetime</text><text x="18" y="800.822" fill="#D9B8FF" font-family="sans-serif" font-size="14" font-weight="bold" textLength="189">password_next_rotation</text><text x="207" y="800.822" fill="#D9B8FF" font-family="sans-serif" font-size="14" textLength="70">: datetime</text><text x="18" y="827.119" fill="#D9B8FF" font-family="sans-serif" font-size="14" font-weight="bold" textLength="196">user_virtual_mfa_devices</text><text x="214" y="827.119" fill="#D9B8FF" font-family="sans-serif" font-size="14" textLength="208">: aws_iam_virtual_mfa_device[]</text><rect width="227" height="310.758" x="106.5" y="7" fill="#3D176E" rx="2.5" ry="2.5" style="stroke:#000d19;stroke-width:.5"/><circle cx="175.25" cy="26.895" r="11" fill="#ADD1B2" style="stroke:#181818;stroke-width:1"/><path d="M178.219 32.535q-.578.297-1.219.438-.64.156-1.344.156-2.5 0-3.828-1.64-1.312-1.657-1.312-4.782t1.312-4.781q1.328-1.656 3.828-1.656.703 0 1.344.156.656.156 1.219.453v2.719q-.625-.578-1.219-.844-.594-.281-1.219-.281-1.344 0-2.031 1.078-.687 1.062-.687 3.156t.687 3.172q.688 1.062 2.031 1.062.625 0 1.219-.265.594-.281 1.219-.86z"/><text x="200.75" y="32.78" fill="#D9B8FF" font-family="Helvetica" font-size="17" textLength="71">resource</text><path d="M107.5 46.789h225" style="stroke:#000d19;stroke-width:.5"/><text x="117.5" y="68.784" fill="#D9B8FF" font-family="sans-serif" font-size="14" font-weight="bold" textLength="29">age</text><text x="146.5" y="68.784" fill="#D9B8FF" font-family="sans-serif" font-size="14" textLength="66">: duration</text><text x="117.5" y="95.081" fill="#D9B8FF" font-family="sans-serif" font-size="14" font-weight="bold" textLength="43">atime</text><text x="160.5" y="95.081" fill="#D9B8FF" font-family="sans-serif" font-size="14" textLength="70">: datetime</text><text x="117.5" y="121.378" fill="#D9B8FF" font-family="sans-serif" font-size="14" font-weight="bold" textLength="43">ctime</text><text x="160.5" y="121.378" fill="#D9B8FF" font-family="sans-serif" font-size="14" textLength="70">: datetime</text><text x="117.5" y="147.675" fill="#D9B8FF" font-family="sans-serif" font-size="14" font-weight="bold" textLength="14">id</text><text x="131.5" y="147.675" fill="#D9B8FF" font-family="sans-serif" font-size="14" textLength="48">: string</text><text x="117.5" y="173.972" fill="#D9B8FF" font-family="sans-serif" font-size="14" font-weight="bold" textLength="33">kind</text><text x="150.5" y="173.972" fill="#D9B8FF" font-family="sans-serif" font-size="14" textLength="48">: string</text><text x="117.5" y="200.269" fill="#D9B8FF" font-family="sans-serif" font-size="14" font-weight="bold" textLength="90">last_access</text><text x="207.5" y="200.269" fill="#D9B8FF" font-family="sans-serif" font-size="14" textLength="66">: duration</text><text x="117.5" y="226.565" fill="#D9B8FF" font-family="sans-serif" font-size="14" font-weight="bold" textLength="90">last_update</text><text x="207.5" y="226.565" fill="#D9B8FF" font-family="sans-serif" font-size="14" textLength="66">: duration</text><text x="117.5" y="252.862" fill="#D9B8FF" font-family="sans-serif" font-size="14" font-weight="bold" textLength="48">mtime</text><text x="165.5" y="252.862" fill="#D9B8FF" font-family="sans-serif" font-size="14" textLength="70">: datetime</text><text x="117.5" y="279.159" fill="#D9B8FF" font-family="sans-serif" font-size="14" font-weight="bold" textLength="43">name</text><text x="160.5" y="279.159" fill="#D9B8FF" font-family="sans-serif" font-size="14" textLength="48">: string</text><text x="117.5" y="305.456" fill="#D9B8FF" font-family="sans-serif" font-size="14" font-weight="bold" textLength="34">tags</text><text x="151.5" y="305.456" fill="#D9B8FF" font-family="sans-serif" font-size="14" textLength="171">: dictionary[string, string]</text><rect width="78" height="39.789" x="257" y="455.91" fill="#3D176E" rx="2.5" ry="2.5" style="stroke:#000d19;stroke-width:.5"/><circle cx="272" cy="475.805" r="11" fill="#ADD1B2" style="stroke:#181818;stroke-width:1"/><path d="M274.969 481.445q-.578.297-1.219.438-.64.156-1.344.156-2.5 0-3.828-1.64-1.312-1.657-1.312-4.782t1.312-4.781q1.328-1.656 3.828-1.656.703 0 1.344.156.656.156 1.219.453v2.719q-.625-.578-1.219-.844-.594-.281-1.219-.281-1.344 0-2.031 1.078-.687 1.062-.687 3.156t.687 3.172q.688 1.062 2.031 1.062.625 0 1.219-.265.594-.281 1.219-.86z"/><text x="291" y="481.69" fill="#D9B8FF" font-family="Helvetica" font-size="17" textLength="36">user</text><path fill="none" d="M178.504 335.68c-10.85 45.03-17.504 72.67-24.764 102.84m28.98-120.34-10.05 16.094 11.667 2.81zM220 839.72v53.21" style="stroke:#ffaf37;stroke-width:2"/><path fill="#FFAF37" d="m220 898.93 4-9-4 4-4-4z" style="stroke:#ffaf37;stroke-width:2"/><path fill="none" d="M160.598 530.63c9.04 31.21 17.492 60.37 29.772 102.75m-34.78-120.04-.755 18.959 11.526-3.339z" style="stroke:#ffaf37;stroke-width:2"/><g fill="none"><path d="M285.338 513.11c-8.52 29.01-20.278 69.07-35.358 120.41" style="stroke:#ffaf37;stroke-width:2"/><path d="m290.41 495.84-10.83 15.58 11.515 3.381z" style="stroke:#ffaf37;stroke-width:2"/></g><g fill="none"><path d="M262.045 335.667c13.33 54.65 22.445 91.963 29.285 119.983" style="stroke:#ffaf37;stroke-width:2"/><path d="m257.78 318.18-1.564 18.91 11.659-2.844z" style="stroke:#ffaf37;stroke-width:2"/></g></svg>
